;START_OF_HEADER
;HEADER_VERSION:0.1
;FLAVOR:Griffin
;GENERATOR.NAME:Cura_SteamEngine
;GENERATOR.VERSION:4.2.1
;GENERATOR.BUILD_DATE:2019-08-01
;TARGET_MACHINE.NAME:Ultimaker 3
;EXTRUDER_TRAIN.0.INITIAL_TEMPERATURE:210
;EXTRUDER_TRAIN.0.MATERIAL.VOLUME_USED:18904
;EXTRUDER_TRAIN.0.MATERIAL.GUID:506c9f0d-e3aa-4bd4-b2d2-23e2425b1aa9
;EXTRUDER_TRAIN.0.NOZZLE.DIAMETER:0.4
;EXTRUDER_TRAIN.0.NOZZLE.NAME:AA 0.4
;BUILD_PLATE.TYPE:glass
;BUILD_PLATE.INITIAL_TEMPERATURE:60
;BUILD_VOLUME.TEMPERATURE:28
;PRINT.TIME:5858
;PRINT.GROUPS:1
;PRINT.SIZE.MIN.X:91.675
;PRINT.SIZE.MIN.Y:82.674
;PRINT.SIZE.MIN.Z:0.27
;PRINT.SIZE.MAX.X:141.325
;PRINT.SIZE.MAX.Y:132.326
;PRINT.SIZE.MAX.Z:49.87
;END_OF_HEADER
;Generated with Cura_SteamEngine 4.2.1
T0
M82 ;absolute extrusion mode

G92 E0
M109 S210
G280 S1
G0 Z20.001
G1 F1500 E-6.5
;LAYER_COUNT:249
;LAYER:0
M107
M204 S625
M205 X6 Y6
;MESH:cube.obj
G0 F4285.7 X92.1 Y131.901 Z0.27
M204 S500
M205 X5 Y5
;TYPE:WALL-INNER
G1 F1500 E0
G1 F1200 X92.1 Y83.099 E0.74357
G1 X140.9 Y83.099 E1.48712
G1 X140.9 Y131.901 E2.23069
G1 X92.1 Y131.901 E2.97424
M204 S625
M205 X6 Y6
G0 F4285.7 X91.71 Y132.291
M204 S500
M205 X5 Y5
;TYPE:WALL-OUTER
G1 F1200 X91.71 Y82.709 E3.8556
G1 X141.29 Y82.709 E4.73694
G1 X141.29 Y132.291 E5.61831
G1 X91.71 Y132.291 E6.49964
M204 S625
M205 X6 Y6
G0 F4285.7 X91.71 Y132.091
G0 X92.172 Y131.829
G0 X92.48 Y131.521
M204 S500
M205 X5 Y5
;TYPE:SKIN
G1 F1200 X92.48 Y83.479 E7.35363
G1 X140.52 Y83.479 E8.20759
G1 X140.52 Y131.521 E9.06158
G1 X92.48 Y131.521 E9.91554
M204 S625
M205 X6 Y6
G0 F4285.7 X92.767 Y131.375
M204 S500
M205 X5 Y5
G1 F1200 X92.623 Y131.231 E9.91916
M204 S625
M205 X6 Y6
G0 F4285.7 X92.623 Y130.637
M204 S500
M205 X5 Y5
G1 F1200 X93.361 Y131.375 E9.93771
M204 S625
M205 X6 Y6
G0 F4285.7 X93.955 Y131.375
M204 S500
M205 X5 Y5
G1 F1200 X92.623 Y130.044 E9.97119
M204 S625
M205 X6 Y6
G0 F4285.7 X92.623 Y129.45
M204 S500
M205 X5 Y5
G1 F1200 X94.549 Y131.375 E10.01959
M204 S625
M205 X6 Y6
G0 F4285.7 X95.143 Y131.375
M204 S500
M205 X5 Y5
G1 F1200 X92.623 Y128.856 E10.08293
M204 S625
M205 X6 Y6
G0 F4285.7 X92.623 Y128.262
M204 S500
M205 X5 Y5
G1 F1200 X95.737 Y131.375 E10.1612
M204 S625
M205 X6 Y6
G0 F4285.7 X96.331 Y131.375
M204 S500
M205 X5 Y5
G1 F1200 X92.623 Y127.668 E10.2544
M204 S625
M205 X6 Y6
G0 F4285.7 X92.623 Y127.074
M204 S500
M205 X5 Y5
G1 F1200 X96.925 Y131.375 E10.36254
M204 S625
M205 X6 Y6
G0 F4285.7 X97.519 Y131.375
M204 S500
M205 X5 Y5
G1 F1200 X92.623 Y126.48 E10.48561
M204 S625
M205 X6 Y6
G0 F4285.7 X92.623 Y125.886
M204 S500
M205 X5 Y5
G1 F1200 X98.113 Y131.375 E10.62361
M204 S625
M205 X6 Y6
G0 F4285.7 X98.707 Y131.375
M204 S500
M205 X5 Y5
G1 F1200 X92.623 Y125.292 E10.77654
M204 S625
M205 X6 Y6
G0 F4285.7 X92.623 Y124.698
M204 S500
M205 X5 Y5
G1 F1200 X99.301 Y131.375 E10.94441
M204 S625
M205 X6 Y6
G0 F4285.7 X99.895 Y131.375
M204 S500
M205 X5 Y5
G1 F1200 X92.623 Y124.104 E11.1272
M204 S625
M205 X6 Y6
G0 F4285.7 X92.623 Y123.51
M204 S500
M205 X5 Y5
G1 F1200 X100.489 Y131.375 E11.32494
M204 S625
M205 X6 Y6
G0 F4285.7 X101.083 Y131.375
M204 S500
M205 X5 Y5
G1 F1200 X92.623 Y122.916 E11.5376
M204 S625
M205 X6 Y6
G0 F4285.7 X92.623 Y122.322
M204 S500
M205 X5 Y5
G1 F1200 X101.677 Y131.375 E11.7652
M204 S625
M205 X6 Y6
G0 F4285.7 X102.27 Y131.375
M204 S500
M205 X5 Y5
G1 F1200 X92.623 Y121.728 E12.00771
M204 S625
M205 X6 Y6
G0 F4285.7 X92.623 Y121.134
M204 S500
M205 X5 Y5
G1 F1200 X102.864 Y131.375 E12.26516
M204 S625
M205 X6 Y6
G0 F4285.7 X103.458 Y131.375
M204 S500
M205 X5 Y5
G1 F1200 X92.623 Y120.54 E12.53754
M204 S625
M205 X6 Y6
G0 F4285.7 X92.623 Y119.946
M204 S500
M205 X5 Y5
G1 F1200 X104.052 Y131.375 E12.82486
M204 S625
M205 X6 Y6
G0 F4285.7 X104.646 Y131.375
M204 S500
M205 X5 Y5
G1 F1200 X92.623 Y119.352 E13.1271
M204 S625
M205 X6 Y6
G0 F4285.7 X92.623 Y118.758
M204 S500
M205 X5 Y5
G1 F1200 X105.24 Y131.375 E13.44428
M204 S625
M205 X6 Y6
G0 F4285.7 X105.834 Y131.375
M204 S500
M205 X5 Y5
G1 F1200 X92.623 Y118.164 E13.77639
M204 S625
M205 X6 Y6
G0 F4285.7 X92.623 Y117.57
M204 S500
M205 X5 Y5
G1 F1200 X106.428 Y131.375 E14.12344
M204 S625
M205 X6 Y6
G0 F4285.7 X107.022 Y131.375
M204 S500
M205 X5 Y5
G1 F1200 X92.623 Y116.976 E14.48541
M204 S625
M205 X6 Y6
G0 F4285.7 X92.623 Y116.382
M204 S500
M205 X5 Y5
G1 F1200 X107.616 Y131.375 E14.86232
M204 S625
M205 X6 Y6
G0 F4285.7 X108.21 Y131.375
M204 S500
M205 X5 Y5
G1 F1200 X92.623 Y115.788 E15.25417
M204 S625
M205 X6 Y6
G0 F4285.7 X92.623 Y115.194
M204 S500
M205 X5 Y5
G1 F1200 X108.804 Y131.375 E15.66094
M204 S625
M205 X6 Y6
G0 F4285.7 X109.398 Y131.375
M204 S500
M205 X5 Y5
G1 F1200 X92.623 Y114.6 E16.08265
M204 S625
M205 X6 Y6
G0 F4285.7 X92.623 Y114.006
M204 S500
M205 X5 Y5
G1 F1200 X109.992 Y131.375 E16.51929
M204 S625
M205 X6 Y6
G0 F4285.7 X110.586 Y131.375
M204 S500
M205 X5 Y5
G1 F1200 X92.623 Y113.412 E16.97086
M204 S625
M205 X6 Y6
G0 F4285.7 X92.623 Y112.818
M204 S500
M205 X5 Y5
G1 F1200 X111.18 Y131.375 E17.43736
M204 S625
M205 X6 Y6
G0 F4285.7 X111.774 Y131.375
M204 S500
M205 X5 Y5
G1 F1200 X92.623 Y112.224 E17.9188
M204 S625
M205 X6 Y6
G0 F4285.7 X92.623 Y111.63
M204 S500
M205 X5 Y5
G1 F1200 X112.368 Y131.375 E18.41517
M204 S625
M205 X6 Y6
G0 F4285.7 X112.962 Y131.375
M204 S500
M205 X5 Y5
G1 F1200 X92.623 Y111.036 E18.92647
M204 S625
M205 X6 Y6
G0 F4285.7 X92.623 Y110.443
M204 S500
M205 X5 Y5
G1 F1200 X113.556 Y131.375 E19.4527
M204 S625
M205 X6 Y6
G0 F4285.7 X114.15 Y131.375
M204 S500
M205 X5 Y5
G1 F1200 X92.623 Y109.849 E19.99385
M204 S625
M205 X6 Y6
G0 F4285.7 X92.623 Y109.255
M204 S500
M205 X5 Y5
G1 F1200 X114.744 Y131.375 E20.54994
M204 S625
M205 X6 Y6
G0 F4285.7 X115.338 Y131.375
M204 S500
M205 X5 Y5
G1 F1200 X92.623 Y108.661 E21.12096
M204 S625
M205 X6 Y6
G0 F4285.7 X92.623 Y108.067
M204 S500
M205 X5 Y5
G1 F1200 X115.932 Y131.375 E21.70691
M204 S625
M205 X6 Y6
G0 F4285.7 X116.526 Y131.375
M204 S500
M205 X5 Y5
G1 F1200 X92.623 Y107.473 E22.3078
M204 S625
M205 X6 Y6
G0 F4285.7 X92.623 Y106.879
M204 S500
M205 X5 Y5
G1 F1200 X117.12 Y131.375 E22.92362
M204 S625
M205 X6 Y6
G0 F4285.7 X117.714 Y131.375
M204 S500
M205 X5 Y5
G1 F1200 X92.623 Y106.285 E23.55437
M204 S625
M205 X6 Y6
G0 F4285.7 X92.623 Y105.691
M204 S500
M205 X5 Y5
G1 F1200 X118.308 Y131.375 E24.20005
M204 S625
M205 X6 Y6
G0 F4285.7 X118.902 Y131.375
M204 S500
M205 X5 Y5
G1 F1200 X92.623 Y105.097 E24.86067
M204 S625
M205 X6 Y6
G0 F4285.7 X92.623 Y104.503
M204 S500
M205 X5 Y5
G1 F1200 X119.496 Y131.375 E25.53622
M204 S625
M205 X6 Y6
G0 F4285.7 X120.09 Y131.375
M204 S500
M205 X5 Y5
G1 F1200 X92.623 Y103.909 E26.2267
M204 S625
M205 X6 Y6
G0 F4285.7 X92.623 Y103.315
M204 S500
M205 X5 Y5
G1 F1200 X120.684 Y131.375 E26.93211
M204 S625
M205 X6 Y6
G0 F4285.7 X121.278 Y131.375
M204 S500
M205 X5 Y5
G1 F1200 X92.623 Y102.721 E27.65246
M204 S625
M205 X6 Y6
G0 F4285.7 X92.623 Y102.127
M204 S500
M205 X5 Y5
G1 F1200 X121.871 Y131.375 E28.38772
M204 S625
M205 X6 Y6
G0 F4285.7 X122.465 Y131.375
M204 S500
M205 X5 Y5
G1 F1200 X92.623 Y101.533 E29.13792
M204 S625
M205 X6 Y6
G0 F4285.7 X92.623 Y100.939
M204 S500
M205 X5 Y5
G1 F1200 X123.059 Y131.375 E29.90305
M204 S625
M205 X6 Y6
G0 F4285.7 X123.653 Y131.375
M204 S500
M205 X5 Y5
G1 F1200 X92.623 Y100.345 E30.68312
M204 S625
M205 X6 Y6
G0 F4285.7 X92.623 Y99.751
M204 S500
M205 X5 Y5
G1 F1200 X124.247 Y131.375 E31.47811
M204 S625
M205 X6 Y6
G0 F4285.7 X124.841 Y131.375
M204 S500
M205 X5 Y5
G1 F1200 X92.623 Y99.157 E32.28804
M204 S625
M205 X6 Y6
G0 F4285.7 X92.623 Y98.563
M204 S500
M205 X5 Y5
G1 F1200 X125.435 Y131.375 E33.1129
M204 S625
M205 X6 Y6
G0 F4285.7 X126.029 Y131.375
M204 S500
M205 X5 Y5
G1 F1200 X92.623 Y97.969 E33.9527
M204 S625
M205 X6 Y6
G0 F4285.7 X92.623 Y97.375
M204 S500
M205 X5 Y5
G1 F1200 X126.623 Y131.375 E34.80743
M204 S625
M205 X6 Y6
G0 F4285.7 X127.217 Y131.375
M204 S500
M205 X5 Y5
G1 F1200 X92.623 Y96.781 E35.67708
M204 S625
M205 X6 Y6
G0 F4285.7 X92.623 Y96.187
M204 S500
M205 X5 Y5
G1 F1200 X127.811 Y131.375 E36.56168
M204 S625
M205 X6 Y6
G0 F4285.7 X128.405 Y131.375
M204 S500
M205 X5 Y5
G1 F1200 X92.623 Y95.593 E37.4612
M204 S625
M205 X6 Y6
G0 F4285.7 X92.623 Y94.999
M204 S500
M205 X5 Y5
G1 F1200 X128.999 Y131.375 E38.37566
M204 S625
M205 X6 Y6
G0 F4285.7 X129.593 Y131.375
M204 S500
M205 X5 Y5
G1 F1200 X92.623 Y94.405 E39.30505
M204 S625
M205 X6 Y6
G0 F4285.7 X92.623 Y93.811
M204 S500
M205 X5 Y5
G1 F1200 X130.187 Y131.375 E40.24937
M204 S625
M205 X6 Y6
G0 F4285.7 X130.781 Y131.375
M204 S500
M205 X5 Y5
G1 F1200 X92.623 Y93.217 E41.20863
M204 S625
M205 X6 Y6
G0 F4285.7 X92.623 Y92.623
M204 S500
M205 X5 Y5
G1 F1200 X131.375 Y131.375 E42.18281
M204 S625
M205 X6 Y6
G0 F4285.7 X131.969 Y131.375
M204 S500
M205 X5 Y5
G1 F1200 X92.623 Y92.029 E43.17193
M204 S625
M205 X6 Y6
G0 F4285.7 X92.623 Y91.435
M204 S500
M205 X5 Y5
G1 F1200 X132.563 Y131.375 E44.17599
M204 S625
M205 X6 Y6
G0 F4285.7 X133.157 Y131.375
M204 S500
M205 X5 Y5
G1 F1200 X92.623 Y90.842 E45.19496
M204 S625
M205 X6 Y6
G0 F4285.7 X92.623 Y90.248
M204 S500
M205 X5 Y5
G1 F1200 X133.751 Y131.375 E46.22886
M204 S625
M205 X6 Y6
G0 F4285.7 X134.345 Y131.375
M204 S500
M205 X5 Y5
G1 F1200 X92.623 Y89.654 E47.2777
M204 S625
M205 X6 Y6
G0 F4285.7 X92.623 Y89.06
M204 S500
M205 X5 Y5
G1 F1200 X134.939 Y131.375 E48.34147
M204 S625
M205 X6 Y6
G0 F4285.7 X135.533 Y131.375
M204 S500
M205 X5 Y5
G1 F1200 X92.623 Y88.466 E49.42018
M204 S625
M205 X6 Y6
G0 F4285.7 X92.623 Y87.872
M204 S500
M205 X5 Y5
G1 F1200 X136.127 Y131.375 E50.51381
M204 S625
M205 X6 Y6
G0 F4285.7 X136.721 Y131.375
M204 S500
M205 X5 Y5
G1 F1200 X92.623 Y87.278 E51.62238
M204 S625
M205 X6 Y6
G0 F4285.7 X92.623 Y86.684
M204 S500
M205 X5 Y5
G1 F1200 X137.315 Y131.375 E52.74588
M204 S625
M205 X6 Y6
G0 F4285.7 X137.909 Y131.375
M204 S500
M205 X5 Y5
G1 F1200 X92.623 Y86.09 E53.88431
M204 S625
M205 X6 Y6
G0 F4285.7 X92.623 Y85.496
M204 S500
M205 X5 Y5
G1 F1200 X138.503 Y131.375 E55.03768
M204 S625
M205 X6 Y6
G0 F4285.7 X139.097 Y131.375
M204 S500
M205 X5 Y5
G1 F1200 X92.623 Y84.902 E56.20598
M204 S625
M205 X6 Y6
G0 F4285.7 X92.623 Y84.308
M204 S500
M205 X5 Y5
G1 F1200 X139.691 Y131.375 E57.38921
M204 S625
M205 X6 Y6
G0 F4285.7 X140.285 Y131.375
M204 S500
M205 X5 Y5
G1 F1200 X92.623 Y83.714 E58.58737
M204 S625
M205 X6 Y6
G0 F4285.7 X93.127 Y83.623
M204 S500
M205 X5 Y5
G1 F1200 X140.374 Y130.871 E59.77513
M204 S625
M205 X6 Y6
G0 F4285.7 X140.374 Y130.277
M204 S500
M205 X5 Y5
G1 F1200 X93.721 Y83.623 E60.94795
M204 S625
M205 X6 Y6
G0 F4285.7 X94.315 Y83.623
M204 S500
M205 X5 Y5
G1 F1200 X140.374 Y129.683 E62.10584
M204 S625
M205 X6 Y6
G0 F4285.7 X140.374 Y129.089
M204 S500
M205 X5 Y5
G1 F1200 X94.909 Y83.623 E63.2488
M204 S625
M205 X6 Y6
G0 F4285.7 X95.503 Y83.623
M204 S500
M205 X5 Y5
G1 F1200 X140.374 Y128.495 E64.37683
M204 S625
M205 X6 Y6
G0 F4285.7 X140.374 Y127.901
M204 S500
M205 X5 Y5
G1 F1200 X96.097 Y83.623 E65.48992
M204 S625
M205 X6 Y6
G0 F4285.7 X96.691 Y83.623
M204 S500
M205 X5 Y5
G1 F1200 X140.374 Y127.307 E66.58808
M204 S625
M205 X6 Y6
G0 F4285.7 X140.374 Y126.713
M204 S500
M205 X5 Y5
G1 F1200 X97.285 Y83.623 E67.67131
M204 S625
M205 X6 Y6
G0 F4285.7 X97.879 Y83.623
M204 S500
M205 X5 Y5
G1 F1200 X140.374 Y126.119 E68.73961
M204 S625
M205 X6 Y6
G0 F4285.7 X140.374 Y125.525
M204 S500
M205 X5 Y5
G1 F1200 X98.473 Y83.623 E69.79297
M204 S625
M205 X6 Y6
G0 F4285.7 X99.067 Y83.623
M204 S500
M205 X5 Y5
G1 F1200 X140.374 Y124.931 E70.8314
M204 S625
M205 X6 Y6
G0 F4285.7 X140.374 Y124.337
M204 S500
M205 X5 Y5
G1 F1200 X99.661 Y83.623 E71.8549
M204 S625
M205 X6 Y6
G0 F4285.7 X100.255 Y83.623
M204 S500
M205 X5 Y5
G1 F1200 X140.374 Y123.743 E72.86346
M204 S625
M205 X6 Y6
G0 F4285.7 X140.374 Y123.149
M204 S500
M205 X5 Y5
G1 F1200 X100.848 Y83.623 E73.85711
M204 S625
M205 X6 Y6
G0 F4285.7 X101.442 Y83.623
M204 S500
M205 X5 Y5
G1 F1200 X140.374 Y122.555 E74.83582
M204 S625
M205 X6 Y6
G0 F4285.7 X140.374 Y121.961
M204 S500
M205 X5 Y5
G1 F1200 X102.036 Y83.623 E75.7996
M204 S625
M205 X6 Y6
G0 F4285.7 X102.63 Y83.623
M204 S500
M205 X5 Y5
G1 F1200 X140.374 Y121.367 E76.74845
M204 S625
M205 X6 Y6
G0 F4285.7 X140.374 Y120.773
M204 S500
M205 X5 Y5
G1 F1200 X103.224 Y83.623 E77.68236
M204 S625
M205 X6 Y6
G0 F4285.7 X103.818 Y83.623
M204 S500
M205 X5 Y5
G1 F1200 X140.374 Y120.179 E78.60134
M204 S625
M205 X6 Y6
G0 F4285.7 X140.374 Y119.585
M204 S500
M205 X5 Y5
G1 F1200 X104.412 Y83.623 E79.50539
M204 S625
M205 X6 Y6
G0 F4285.7 X105.006 Y83.623
M204 S500
M205 X5 Y5
G1 F1200 X140.374 Y118.991 E80.39451
M204 S625
M205 X6 Y6
G0 F4285.7 X140.374 Y118.397
M204 S500
M205 X5 Y5
G1 F1200 X105.6 Y83.623 E81.26869
M204 S625
M205 X6 Y6
G0 F4285.7 X106.194 Y83.623
M204 S500
M205 X5 Y5
G1 F1200 X140.374 Y117.803 E82.12795
M204 S625
M205 X6 Y6
G0 F4285.7 X140.374 Y117.21
M204 S500
M205 X5 Y5
G1 F1200 X106.788 Y83.623 E82.97228
M204 S625
M205 X6 Y6
G0 F4285.7 X107.382 Y83.623
M204 S500
M205 X5 Y5
G1 F1200 X140.374 Y116.616 E83.80168
M204 S625
M205 X6 Y6
G0 F4285.7 X140.374 Y116.022
M204 S500
M205 X5 Y5
G1 F1200 X107.976 Y83.623 E84.61614
M204 S625
M205 X6 Y6
G0 F4285.7 X108.57 Y83.623
M204 S500
M205 X5 Y5
G1 F1200 X140.374 Y115.428 E85.41568
M204 S625
M205 X6 Y6
G0 F4285.7 X140.374 Y114.834
M204 S500
M205 X5 Y5
G1 F1200 X109.164 Y83.623 E86.20028
M204 S625
M205 X6 Y6
G0 F4285.7 X109.758 Y83.623
M204 S500
M205 X5 Y5
G1 F1200 X140.374 Y114.24 E86.96995
M204 S625
M205 X6 Y6
G0 F4285.7 X140.374 Y113.646
M204 S500
M205 X5 Y5
G1 F1200 X110.352 Y83.623 E87.72469
M204 S625
M205 X6 Y6
G0 F4285.7 X110.946 Y83.623
M204 S500
M205 X5 Y5
G1 F1200 X140.374 Y113.052 E88.46449
M204 S625
M205 X6 Y6
G0 F4285.7 X140.374 Y112.458
M204 S500
M205 X5 Y5
G1 F1200 X111.54 Y83.623 E89.18936
M204 S625
M205 X6 Y6
G0 F4285.7 X112.134 Y83.623
M204 S500
M205 X5 Y5
G1 F1200 X140.374 Y111.864 E89.8993
M204 S625
M205 X6 Y6
G0 F4285.7 X140.374 Y111.27
M204 S500
M205 X5 Y5
G1 F1200 X112.728 Y83.623 E90.59431
M204 S625
M205 X6 Y6
G0 F4285.7 X113.322 Y83.623
M204 S500
M205 X5 Y5
G1 F1200 X140.374 Y110.676 E91.27438
M204 S625
M205 X6 Y6
G0 F4285.7 X140.374 Y110.082
M204 S500
M205 X5 Y5
G1 F1200 X113.916 Y83.623 E91.93952
M204 S625
M205 X6 Y6
G0 F4285.7 X114.51 Y83.623
M204 S500
M205 X5 Y5
G1 F1200 X140.374 Y109.488 E92.58973
M204 S625
M205 X6 Y6
G0 F4285.7 X140.374 Y108.894
M204 S500
M205 X5 Y5
G1 F1200 X115.104 Y83.623 E93.225
M204 S625
M205 X6 Y6
G0 F4285.7 X115.698 Y83.623
M204 S500
M205 X5 Y5
G1 F1200 X140.374 Y108.3 E93.84535
M204 S625
M205 X6 Y6
G0 F4285.7 X140.374 Y107.706
M204 S500
M205 X5 Y5
G1 F1200 X116.292 Y83.623 E94.45076
M204 S625
M205 X6 Y6
G0 F4285.7 X116.886 Y83.623
M204 S500
M205 X5 Y5
G1 F1200 X140.374 Y107.112 E95.04124
M204 S625
M205 X6 Y6
G0 F4285.7 X140.374 Y106.518
M204 S500
M205 X5 Y5
G1 F1200 X117.48 Y83.623 E95.61678
M204 S625
M205 X6 Y6
G0 F4285.7 X118.074 Y83.623
M204 S500
M205 X5 Y5
G1 F1200 X140.374 Y105.924 E96.17739
M204 S625
M205 X6 Y6
G0 F4285.7 X140.374 Y105.33
M204 S500
M205 X5 Y5
G1 F1200 X118.668 Y83.623 E96.72307
M204 S625
M205 X6 Y6
G0 F4285.7 X119.262 Y83.623
M204 S500
M205 X5 Y5
G1 F1200 X140.374 Y104.736 E97.25382
M204 S625
M205 X6 Y6
G0 F4285.7 X140.374 Y104.142
M204 S500
M205 X5 Y5
G1 F1200 X119.856 Y83.623 E97.76964
M204 S625
M205 X6 Y6
G0 F4285.7 X120.449 Y83.623
M204 S500
M205 X5 Y5
G1 F1200 X140.374 Y103.548 E98.27053
M204 S625
M205 X6 Y6
G0 F4285.7 X140.374 Y102.954
M204 S500
M205 X5 Y5
G1 F1200 X121.043 Y83.623 E98.7565
M204 S625
M205 X6 Y6
G0 F4285.7 X121.637 Y83.623
M204 S500
M205 X5 Y5
G1 F1200 X140.374 Y102.36 E99.22753
M204 S625
M205 X6 Y6
G0 F4285.7 X140.374 Y101.766
M204 S500
M205 X5 Y5
G1 F1200 X122.231 Y83.623 E99.68362
M204 S625
M205 X6 Y6
G0 F4285.7 X122.825 Y83.623
M204 S500
M205 X5 Y5
G1 F1200 X140.374 Y101.172 E100.12479
M204 S625
M205 X6 Y6
G0 F4285.7 X140.374 Y100.578
M204 S500
M205 X5 Y5
G1 F1200 X123.419 Y83.623 E100.55102
M204 S625
M205 X6 Y6
G0 F4285.7 X124.013 Y83.623
M204 S500
M205 X5 Y5
G1 F1200 X140.374 Y99.984 E100.96232
M204 S625
M205 X6 Y6
G0 F4285.7 X140.374 Y99.39
M204 S500
M205 X5 Y5
G1 F1200 X124.607 Y83.623 E101.35869
M204 S625
M205 X6 Y6
G0 F4285.7 X125.201 Y83.623
M204 S500
M205 X5 Y5
G1 F1200 X140.374 Y98.796 E101.74012
M204 S625
M205 X6 Y6
